style-guide/assets/xd-icons-numbered-list-small.svg

<?xml version="1.0" encoding="UTF-8"?>
<svg width="18px" height="18px" viewBox="0 0 18 18" version="1.1" xmlns="http://www.w3.org/2000/svg" xmlns:xlink="http://www.w3.org/1999/xlink">
    <!-- Generator: Sketch 51.3 (57544) - http://www.bohemiancoding.com/sketch -->
    <title>numbered list</title>
    <desc>Created with Sketch.</desc>
    <defs></defs>
    <g id="numbered-list" stroke="none" stroke-width="1" fill="none" fill-rule="evenodd">
        <path d="M3.6875,15.0005 C3.9635,15.0005 4.1875,15.2245 4.1875,15.5005 C4.1875,15.7765 3.9635,16.0005 3.6875,16.0005 L1.4995,16.0005 C1.2235,16.0005 0.9995,15.7765 0.9995,15.5005 C0.9995,14.2935 1.6355,13.6575 2.1465,13.1465 C2.6235,12.6705 3.0005,12.2935 3.0005,11.5005 C3.0005,11.2255 2.7755,11.0005 2.5005,11.0005 C2.2245,11.0005 2.0005,11.2255 2.0005,11.5005 C2.0005,11.7765 1.7765,12.0005 1.4995,12.0005 C1.2235,12.0005 0.9995,11.7765 0.9995,11.5005 C0.9995,10.6735 1.6725,10.0005 2.5005,10.0005 C3.3275,10.0005 3.9995,10.6735 3.9995,11.5005 C3.9995,12.7075 3.3645,13.3435 2.8535,13.8545 C2.4895,14.2185 2.1835,14.5235 2.0595,15.0005 L3.6875,15.0005 Z M1.8535,3.854 C1.6585,4.049 1.3415,4.049 1.1465,3.854 C0.9515,3.659 0.9515,3.342 1.1465,3.147 L2.1465,2.147 C2.2905,2.004 2.5045,1.959 2.6915,2.039 C2.8775,2.116 2.9995,2.298 2.9995,2.5 L2.9995,7.5 C2.9995,7.777 2.7765,8 2.4995,8 C2.2235,8 1.9995,7.777 1.9995,7.5 L1.9995,3.708 L1.8535,3.854 Z M7,4.0005 C6.447,4.0005 6,3.5535 6,3.0005 C6,2.4475 6.447,2.0005 7,2.0005 L16,2.0005 C16.553,2.0005 17,2.4475 17,3.0005 C17,3.5535 16.553,4.0005 16,4.0005 L7,4.0005 Z M16,8.0005 C16.553,8.0005 17,8.4475 17,9.0005 C17,9.5535 16.553,10.0005 16,10.0005 L7,10.0005 C6.447,10.0005 6,9.5535 6,9.0005 C6,8.4475 6.447,8.0005 7,8.0005 L16,8.0005 Z M16,14.0005 C16.553,14.0005 17,14.4475 17,15.0005 C17,15.5535 16.553,16.0005 16,16.0005 L7,16.0005 C6.447,16.0005 6,15.5535 6,15.0005 C6,14.4475 6.447,14.0005 7,14.0005 L16,14.0005 Z" id="Fill-9" fill="#000000"></path>
    </g>
</svg>

<svg viewBox="0 0 18 18" xmlns="http://www.w3.org/2000/svg">
  <path d="M3.688 15a.5.5 0 0 1 0 1H1.5a.5.5 0 0 1-.5-.5c0-1.207.635-1.842 1.147-2.354.477-.476.854-.853.854-1.646a.5.5 0 0 0-1 0A.5.5 0 0 1 1 11.5c0-.826.673-1.5 1.5-1.5.828 0 1.5.674 1.5 1.5 0 1.207-.635 1.844-1.147 2.354-.364.365-.67.67-.794 1.147h1.628zM1.853 3.854a.5.5 0 0 1-.706-.707l1-1A.5.5 0 1 1 3 2.5v5a.499.499 0 1 1-1 0V3.708l-.147.146zM7 4a1 1 0 1 1 0-2h9a1 1 0 1 1 0 2H7zm9 4a1 1 0 1 1 0 2H7a1 1 0 1 1 0-2h9zm0 6a1 1 0 1 1 0 2H7a1 1 0 1 1 0-2h9z" fill="#000" fill-rule="evenodd"/>
</svg>
